X:1240
T: The Master's Sporting Paddy
S: B.Breathnach:"Ceol Rince na hEireann" IV/154 (gan ainm)
Z: B.Black
N: "The master" = Michael McDermott (fiddler, Co. Tyrone, d.1947)
L: 1/8
M: 4/4
R: reel
K: Ador
GA|B2 GE DEGA|B2 GA GEDG|B2 GE DEGg|gedB A2 GA|
B2 GE DEGA|B2 GA GEDG|B2 GE DEGg|gedB A2 A2 ||
BddG BGdG|BddB (3AAA A2|BddG BGdG|BcBA GE E2|
BddG BGdG|BddB (3AAA A2|Bdef g2 g2|egdB A2 ||
